!!!OTL: DER WAECHTER AUF DEM THURME SASS
!!!ARE: Europa, Mitteleuropa, Deutschland, Westerwald
!!!SCT: E0812A
!!!YEM: Copyright 1995, estate of Helmut Schaffrath.
**kern
*ICvox
*Ivox
*M2/4
*k[f#]
*G:
{8d
=1
8g
8g
8a
8dd
=2
8b
16b
16a
8g}
{16b
16cc
=3
8dd
8dd
8ee
8ee
=4
8.dd
16cc
8b}
{16b
16cc
=5
8dd
8dd
8dd
16ee
16dd
=6
8dd
8cc
8cc}
{8dd
=7
8b
8b
8dd
16cc
16b
=8
8b
8a
8a}
{8d
=9
8g
8g
8a
8a
=10
4b
8dd
8b
=11
2a
=12
4g
8r}
==
!!!AGN: Tage -, Kilt - Lied, Waechter - Lied
!!!ONB: ESAC (Essen Associative Code) Database: ERK2
!!!AMT: simple duple
!!!AIN: vox
!!!EED: Helmut Schaffrath
!!!EEV: 1.0
*-
